X:1
T:James Gibb editions
T:Ecce Virgo concipiet - Morales
T:#
%%score [ 1 2 3 4 ]
L:1/8
Q:1/4=180
M:none
K:C
V:1 treble nm="Soprano" snm="S"
V:2 treble nm="Alto" snm="A"
V:3 treble-8 nm="Tenor" snm="T"
V:4 bass nm="Bass" snm="B"
V:1
"^Cristóbal de Morales\n(1500-53)""^Ecce Virgo concipiet" E12 E4 | E8 A,8 | A12 A4 | A8 D8 | %4
w: Ec- ce|Vir- go,|ec- ce|Vir- go|
 E4 (G4 F4 E4- | E2 F2 G2 A2 B4 A4 | A4) ^G4 A8 |[M:4/2] z8 A8- | A4 A4 A8 | D8 z4 (A4 | %10
w: con- ci\- * *||* pi- et,|ec\-|* ce Vir-|go con\-|
 B4) (B4 c6 B2 | G2 A2 B6 A2 A4- | A4) ^G4 A8 | z16 | z8 E8 | F8 G8 | A16 | z4 (A4 E4 G4 | %18
w: * ci\- * *||* pi- et,||et|pa- ri-|et|fi\- * *|
 F4 E8) D4 | E8 z8 | z16 | z16 | z16 | z8 c8- | c4 B4 A6 A2 | G4 c8 B4 | A4 A4 c6 B2 | %27
w: * * li-|um:||||et|* vo- ca- bi-|tur no- men|e- jus, no- men|
 (A4 G6 E2 F4- | F2 E2 E8 D4) | E8 A,8- | A,4 B,4 C4 D4 | E16 | z8 z4 A4- | A4 ^G4 A4 F4 | E8 A8- | %35
w: e\- * * *||jus. Ad\-|* mi- ra- bi-|lis,|Ad\-|* mi- ra- bi-|lis, De\-|
 A8 G8 | F16 | E8 c8- | c8 B8 | A16 | ^G16- | G16 | z16 | z16 | z4 A8 G4 | A4 B4 c4 A4 | G16 | %47
w: * us|for-|tis, De\-|* us|for-|tis.||||Su- per|so- li- um Da-|vid,|
 z8 z4 A4 | A4 A4 c8- | c4 B4 (B8 | A8) ^G8- | G8 z8 | z4 A4 A4 A4 | c12 B4 | (B8 A8) | ^G8 z4 E4 | %56
w: et|su- per re\-|* gnum e\-|* jus||se- de- bit|in ae-|ter\- *|num, se-|
 E4 E4 G8 | F4 (E8 D4) | E8 z8 | z16 | z16 | z16 | z8 c8- | c4 B4 A6 A2 | G4 c8 B4 | A4 A4 c6 B2 | %66
w: de- bit in|ae- ter\- *|num.||||Et|* vo- ca- bi-|tur no- men|e- jus, no- men|
 (A4 G6 E2 F4- | F2 E2 E8 D4) | E8 A,8- | A,4 B,4 C4 D4 | E16 | z8 z4 A4- | A4 ^G4 A4 F4 | E8 A8- | %74
w: e\- * * *||jus. Ad\-|* mi- ra- bi-|lis,|Ad\-|* mi- ra- bi-|lis, De\-|
 A8 G8 | F16 | E16- | E16 | z8 c8- | c8 B8 | A16 | ^G16- | G16 |] %83
w: * us|for-|tis,||De\-|* us|for-|tis.||
V:2
 z8 E8- | E4 E4 E8 | A,8 D8- | D4 D4 D8 | G,8 A,4 (C4- | C4 B,2 A,2 G,4 A,4) | B,8 A,8 | %7
w: Ec\-|* ce Vir-|go, ec\-|* ce Vir-|go con- ci\-||pi- et,|
[M:4/2] z16 | z16 | z16 | z16 | z8 E8- | E4 E4 E8 | A,4 C4 (B,4 A,4- | A,4 ^G,4 A,8 | z16 | z16 | %17
w: ||||ec\-|* ce Vir-|go con- ci\- *|* pi- et,|||
 z16 | z8 A,8- | A,4 B,4 C4 D4 | E4 (A,2 B,2 C2 D2 E4- | E4 C4 F8- | F4 E4 D8 | C6 D2) E8 | z16 | %25
w: |et|* vo- ca- bi-|tur no\- * * * *|* men e\-||* * jus,||
 z16 | z8 A,6 B,2 | C4 D4 E4 D4 | B,4 C4) A,8 | C16 | z16 | z8 A,8- | A,4 B,4 C4 D4 | E8 z8 | %34
w: |et vo-|ca- bi- tur no-|men * e-|jus.||Ad\-|* mi- ra- bi-|lis,|
 z8 F8- | F8 E8 | D16 | C8 E8- | E8 E8 | (C8 F8) | E16- | E16 | z16 | z8 z4 D4- | D4 C4 D4 E4 | %45
w: De\-|* us|for-|tis, De\-|* us|for\- *|tis.|||Su\-|* per so- li-|
 (F4 D4) (C6 D2) | E16 | z4 D4 D4 D4 | F12 E4 | (G16 | F8) E8- | E8 z4 D4 | D4 D4 F8- | %53
w: um * Da\- *|vid,|et su- per|re- gnum|e\-|* jus|* se-|de- bit in|
 F4 E4 (G8- | G8 F8) | E16 | z16 | z8 A,8- | A,4 B,4 C4 D4 | E4 (A,2 B,2 C2 D2 E4- | E4) C4 (F8- | %61
w: * ae- ter\-||num.||Et|* vo- ca- bi-|tur no\- * * * *|* men e\-|
 F4 E4 D8) | C8 z4 A,4- | A,4 B,4 C4 D4 | E8 z8 | z8 A,6 B,2 | (C4 D4 E4 D4 | B,4 C4 A,8) | C16 | %69
w: |jus, et|* vo- ca- bi-|tur|no- men|e\- * * *||jus.|
 z16 | z8 A,8- | A,4 B,4 C4 D4 | E8 z8 | z8 F8- | F8 E8 | D16 | C8 A,8- | A,8 G,8 | C16 | D8 E8 | %80
w: |Ad\-|* mi- ra- bi-|lis,|De\-|* us|for-|tis, De\-|* us|for-|tis, De-|
 C8 F8 | E16- | E16 |] %83
w: us for-|tis.||
V:3
 z16 | z16 | z16 | z16 | z16 | z16 | z8 A8- |[M:4/2][K:treble-8] A4 A4 A8 | D8- d8- | d4 d4 d8 | %10
w: ||||||Ec\-|* ce Vir-|go, ec\-|* ce Vir-|
 G8 z4 A4- | (B4 G4) (c8 | B8) A8 | z16 | z8 c8 | d8 B8 | A8 z4 (d4- | d4 A4 c6 B2 | A4 G4) F8 | %19
w: go con-|ci\- * pi\-|* et,||et|pa- ri-|et fi\-||* * li-|
 E8 z8 | z16 | z8 D8- | D4 E4 F4 G4 | A8 z4 A4- | A4 B4 c4 d4 | e4 A8 B4 | c4 d4 e8 | z8 A8 | %28
w: um:||et|* vo- ca- bi-|tur, et|* vo- ca- bi-|tur, et vo-|ca- bi- tur|no-|
 G8 F8 | E8 z4 A4- | A4 ^G4 A4 F4 | E8 z8 | z8 A8 | B8 c4 d4 | e8 c8- | c8 c8 | A16 | A16 | z8 G8 | %39
w: men e-|jus. Ad\-|* mi- ra- bi-|lis,|Ad-|mi- ra- bi-|lis, De\-|* us|for-|tis,|De-|
 A4 (F6 G2 A2 B2 | c4 B4) B8 | z16 | B12 A4 | B4 c4 d4 B4 | A8 z8 | z16 | z8 z4 B4 | B4 B4 d8- | %48
w: us for\- * * *|* * tis.||Su- per|so- li- um Da-|vid,||et|su- per re\-|
 d4 c4 c8 | d16- | d8 z8 | z4 B4 B4 B4 | d12 c4 | c8 d8- | d16 | z4 B4 B4 B4 | c12 B4 | %57
w: * gnum e-|jus||se- de- bit|in ae-|ter- num,||se- de- bit|in ae-|
 (A4 G4 F8) | E8 z8 | z16 | z8 D8- | D4 E4 F4 G4 | A16 | z16 | z4 A8 B4 | c4 d4 e8 | z8 A8 | %67
w: ter\- * *|num.||Et|* vo- ca- bi-|tur,||et vo-|ca- bi- tur|no-|
 G8 F8 | E8 z4 A4- | A4 ^G4 A4 F4 | E8 z8 | z8 A8 | B8 c4 d4 | e8 c8- | c8 c8 | A16 | A8 c8- | %77
w: men e-|jus, Ad\-|* mi- ra- bi-|lis,|Ad-|mi- ra- bi-|lis, De\-|* us|for-|tis, De\-|
 c8 B8 | A16 | G16 | z8 d8 | B8 (c8 | B8) B8 |] %83
w: * us|for-|tis,|De-|us for\-|* tis.|
V:4
 z16 | z16 | z16 | z16 | z16 | E,12 E,4 | E,8 A,,8 |[M:4/2] A,12 A,4 | A,8 D,8 | z16 | z16 | %11
w: |||||Ec- ce|Vir- go,|ec- ce|Vir- go,|||
 E,12 E,4 | E,8 A,,4- (A,4- | A,2 G,2 F,2 E,2 D,4) C,4 | B,,8 A,,8 | z16 | z16 | z16 | z16 | %19
w: ec- ce|Vir- go con\-|* * * * * ci-|pi- et,|||||
 A,,12 B,,4 | (C,4 D,4) E,8 | A,,4 (A,6 G,2 F,2 E,2 | D,4) C,4 (D,4 B,,4) | A,,16 | z16 | z16 | %26
w: et vo-|ca\- * bi-|tur no\- * * *|* men e\- *|jus,|||
 z8 z4 A,,4- | A,,4 B,,4 (C,4 D,4 | E,4 C,4 D,8) | A,,16 | z16 | z8 z4 A,4- | A,4 ^G,4 A,4 F,4 | %33
w: no\-|* men e\- *||jus.||Ad\-|* mi- ra- bi-|
 E,8 z8 | z8 F,8- | F,8 C,8 | D,16 | A,,16- | A,,8 E,8 | F,8 D,8 | E,16 | z8 E,8- | %42
w: lis,|De\-|* us|for-|tis,|* De-|us for-|tis.|Su\-|
 E,4 D,4 E,4 F,4 | G,4 E,4 D,8 | z16 | z16 | z4 E,4 E,4 E,4 | G,12 F,4 | (F,8 A,8 | G,16 | %50
w: * per so- li-|um Da- vid,|||et su- per|re- gnum|e\- *||
 D,8 z4 E,4 | E,4 E,4 G,8- | G,4 F,4 (F,8 | A,8 G,8- | G,8 D,8) | E,16 | z16 | z16 | A,,12 B,,4 | %59
w: jus se-|de- bit in|* ae- ter\-|||num.|||Et vo-|
 C,4 D,4) E,8 | A,,4 (A,6 G,2 F,2 E,2 | D,4) C,4 (D,4 B,,4) | A,,16 | z16 | z16 | z8 z4 A,,4- | %66
w: ca\- * bi-|tur no\- * * *|* men e\- *|jus,|||no\-|
 A,,4 B,,4 (C,4 D,4 | E,4 C,4 D,8) | A,,16 | z16 | z8 z4 A,4- | A,4 ^G,4 A,4 F,4 | E,8 z8 | %73
w: * men e\- *||jus||Ad\-|* mi- ra- bi-|lis,|
 z8 F,8- | F,8 C,8 | D,16 | A,,16 | z16 | z16 | z8 E,8 | F,8 D,8 | E,16- | E,16 |] %83
w: De\-|* us|for-|tis,|||De-|us for-|tis.||

